symbols/web/production_quantity_limits/materialsymbolsoutlined/production_quantity_limits_wght200_40px.svg

<svg xmlns="http://www.w3.org/2000/svg" height="40" width="40"><path d="M12.292 35.208q-1 0-1.688-.708-.687-.708-.687-1.708t.687-1.688q.688-.687 1.729-.687 1 0 1.688.687.687.688.687 1.688t-.687 1.708q-.688.708-1.729.708Zm15.708 0q-1 0-1.688-.708-.687-.708-.687-1.708t.687-1.688Q27 30.417 28 30.417t1.708.687q.709.688.709 1.688t-.709 1.708q-.708.708-1.708.708Zm-8-19.416q-.417 0-.688-.292-.27-.292-.27-.667 0-.416.27-.687.271-.271.688-.271.417 0 .688.271.27.271.27.687 0 .417-.27.688-.271.271-.688.271Zm-.708-4.959V2.5h1.416v8.333Zm-7 15.959q-1.417 0-2.084-1.167-.666-1.167 0-2.375l2.584-4.625L6.583 5.583H3.625V4.167H7.5l6.833 14.416h11.792l6.167-11.041 1.208.666-5.833 10.542q-.334.625-.875.938-.542.312-1.209.312H13.625l-2.25 4.083q-.25.375 0 .834.25.458.708.458h18.334v1.417Z"/></svg>

<svg xmlns="http://www.w3.org/2000/svg" height="40" width="40"><path d="M12.292 35.208Q11.292 35.208 10.604 34.5Q9.917 33.792 9.917 32.792Q9.917 31.792 10.604 31.104Q11.292 30.417 12.333 30.417Q13.333 30.417 14.021 31.104Q14.708 31.792 14.708 32.792Q14.708 33.792 14.021 34.5Q13.333 35.208 12.292 35.208ZM28 35.208Q27 35.208 26.312 34.5Q25.625 33.792 25.625 32.792Q25.625 31.792 26.312 31.104Q27 30.417 28 30.417Q29 30.417 29.708 31.104Q30.417 31.792 30.417 32.792Q30.417 33.792 29.708 34.5Q29 35.208 28 35.208ZM20 15.792Q19.583 15.792 19.312 15.5Q19.042 15.208 19.042 14.833Q19.042 14.417 19.312 14.146Q19.583 13.875 20 13.875Q20.417 13.875 20.688 14.146Q20.958 14.417 20.958 14.833Q20.958 15.25 20.688 15.521Q20.417 15.792 20 15.792ZM19.292 10.833V2.5H20.708V10.833ZM12.292 26.792Q10.875 26.792 10.208 25.625Q9.542 24.458 10.208 23.25L12.792 18.625L6.583 5.583H3.625V4.167H7.5L14.333 18.583H26.125L32.292 7.542L33.5 8.208L27.667 18.75Q27.333 19.375 26.792 19.688Q26.25 20 25.583 20H13.625L11.375 24.083Q11.125 24.458 11.375 24.917Q11.625 25.375 12.083 25.375H30.417V26.792Z"/></svg>
